svg/development/bug_fill.svg

<?xml version="1.0" encoding="UTF-8"?>
<svg width="24px" height="24px" viewBox="0 0 24 24" version="1.1" xmlns="http://www.w3.org/2000/svg" xmlns:xlink="http://www.w3.org/1999/xlink">
    <title>bug_fill</title>
    <g id="页面-1" stroke="none" stroke-width="1" fill="none" fill-rule="evenodd">
        <g id="Development" transform="translate(-240.000000, -48.000000)">
            <g id="bug_fill" transform="translate(240.000000, 48.000000)">
                 <path d="M24,0 L24,24 L0,24 L0,0 L24,0 Z M12.5934901,23.257841 L12.5819402,23.2595131 L12.5108777,23.2950439 L12.4918791,23.2987469 L12.4918791,23.2987469 L12.4767152,23.2950439 L12.4056548,23.2595131 C12.3958229,23.2563662 12.3870493,23.2590235 12.3821421,23.2649074 L12.3780323,23.275831 L12.360941,23.7031097 L12.3658947,23.7234994 L12.3769048,23.7357139 L12.4804777,23.8096931 L12.4953491,23.8136134 L12.4953491,23.8136134 L12.5071152,23.8096931 L12.6106902,23.7357139 L12.6232938,23.7196733 L12.6232938,23.7196733 L12.6266527,23.7031097 L12.609561,23.275831 C12.6075724,23.2657013 12.6010112,23.2592993 12.5934901,23.257841 L12.5934901,23.257841 Z M12.8583906,23.1452862 L12.8445485,23.1473072 L12.6598443,23.2396597 L12.6498822,23.2499052 L12.6498822,23.2499052 L12.6471943,23.2611114 L12.6650943,23.6906389 L12.6699349,23.7034178 L12.6699349,23.7034178 L12.678386,23.7104931 L12.8793402,23.8032389 C12.8914285,23.8068999 12.9022333,23.8029875 12.9078286,23.7952264 L12.9118235,23.7811639 L12.8776777,23.1665331 C12.8752882,23.1545897 12.8674102,23.1470016 12.8583906,23.1452862 L12.8583906,23.1452862 Z M12.1430473,23.1473072 C12.1332178,23.1423925 12.1221763,23.1452606 12.1156365,23.1525954 L12.1099173,23.1665331 L12.0757714,23.7811639 C12.0751323,23.7926639 12.0828099,23.8018602 12.0926481,23.8045676 L12.108256,23.8032389 L12.3092106,23.7104931 L12.3186497,23.7024347 L12.3186497,23.7024347 L12.3225043,23.6906389 L12.340401,23.2611114 L12.337245,23.2485176 L12.337245,23.2485176 L12.3277531,23.2396597 L12.1430473,23.1473072 Z" id="MingCute" fill-rule="nonzero"></path>
                <path d="M7.66955,5.49927 C8.53256,4.00738 10.1481,3 12,3 C13.852,3 15.4675,4.00738 16.3305,5.49927 L17.1986,7 L15.4649,7 L8.53516,7 L6.80143,7 L7.66955,5.49927 Z M3.55279,6.10555 C4.04676,5.85856 4.64744,6.05878 4.89443,6.55276 C5.04108,6.84607 5.39318,7.22691 5.8672,7.54292 C6.35266,7.86656 6.78116,7.99997 7,7.99997 C7.0024,7.99997 7.00479,7.99998 7.00718,8 L16.9928,8 C16.9952,7.99998 16.9976,7.99997 17,7.99997 C17.2188,7.99997 17.6473,7.86656 18.1328,7.54292 C18.6068,7.22691 18.9589,6.84607 19.1056,6.55276 C19.3526,6.05878 19.9532,5.85856 20.4472,6.10555 C20.9412,6.35254 21.1414,6.95321 20.8944,7.44719 C20.5411,8.15388 19.8932,8.77304 19.2422,9.20703 C18.9509,9.40125 18.6218,9.58308 18.2759,9.72349 C18.5654,10.434 18.7748,11.1988 18.8918,12 L21,12 C21.5523,12 22,12.4477 22,13 C22,13.5523 21.5523,14 21,14 L18.9878,14 C18.9304,15.1717 18.6728,16.3028 18.2484,17.3272 C18.8198,17.6571 19.2112,18.1863 19.4569,18.6778 C19.851,19.4659 20,20.3744 20,21 C20,21.5523 19.5523,22 19,22 C18.4477,22 18,21.5523 18,21 C18,20.6256 17.899,20.034 17.6681,19.5722 C17.5381,19.3122 17.4086,19.1633 17.2827,19.0829 C16.2272,20.5678 14.744,21.6223 13,21.9167 L13,13 C13,12.4477 12.5523,12 12,12 C11.4477,12 11,12.4477 11,13 L11,21.9167 C9.25603,21.6223 7.77279,20.5678 6.71734,19.0829 C6.59144,19.1633 6.46194,19.3122 6.33193,19.5722 C6.101,20.034 6,20.6256 6,21 C6,21.5523 5.55228,22 5,22 C4.44772,22 4,21.5523 4,21 C4,20.3744 4.149,19.4659 4.54307,18.6778 C4.78878,18.1863 5.18022,17.6571 5.75155,17.3272 C5.32717,16.3028 5.06959,15.1717 5.01223,14 L3,14 C2.44772,14 2,13.5523 2,13 C2,12.4477 2.44772,12 3,12 L5.10825,12 C5.22525,11.1988 5.4346,10.434 5.72409,9.72349 C5.37824,9.58308 5.04914,9.40125 4.7578,9.20703 C4.10682,8.77304 3.45892,8.15388 3.10557,7.44719 C2.85858,6.95321 3.05881,6.35254 3.55279,6.10555 Z" id="形状" fill="#09244B"></path>
            </g>
        </g>
    </g>
</svg>

<svg xmlns="http://www.w3.org/2000/svg" width="24" height="24"><g fill="none" fill-rule="evenodd"><path d="M24 0v24H0V0h24ZM12.593 23.258l-.011.002-.071.035-.02.004-.014-.004-.071-.035c-.01-.004-.019-.001-.024.005l-.004.01-.017.428.005.02.01.013.104.074.015.004.012-.004.104-.074.012-.016.004-.017-.017-.427c-.002-.01-.009-.017-.017-.018Zm.265-.113-.013.002-.185.093-.01.01-.003.011.018.43.005.012.008.007.201.093c.012.004.023 0 .029-.008l.004-.014-.034-.614c-.003-.012-.01-.02-.02-.022Zm-.715.002a.023.023 0 0 0-.027.006l-.006.014-.034.614c0 .012.007.02.017.024l.015-.002.201-.093.01-.008.004-.011.017-.43-.003-.012-.01-.01-.184-.092Z"/><path fill="#09244B" d="M7.67 5.5A4.998 4.998 0 0 1 12 3a4.998 4.998 0 0 1 4.33 2.5L17.2 7H6.8l.869-1.5Zm-4.117.606a1 1 0 0 1 1.341.447c.147.293.5.674.973.99C6.353 7.867 6.781 8 7 8h10c.219 0 .647-.133 1.133-.457.474-.316.826-.697.973-.99a1 1 0 1 1 1.788.894c-.353.707-1 1.326-1.652 1.76a5.48 5.48 0 0 1-.966.516c.29.711.499 1.476.616 2.277H21a1 1 0 1 1 0 2h-2.012a9.995 9.995 0 0 1-.74 3.327c.572.33.963.86 1.209 1.35A5.5 5.5 0 0 1 20 21a1 1 0 1 1-2 0c0-.374-.101-.966-.332-1.428-.13-.26-.26-.409-.385-.49-1.056 1.486-2.539 2.54-4.283 2.835V13a1 1 0 1 0-2 0v8.917c-1.744-.295-3.227-1.35-4.283-2.834-.126.08-.255.23-.385.49A3.513 3.513 0 0 0 6 21a1 1 0 1 1-2 0 5.5 5.5 0 0 1 .543-2.322c.246-.492.637-1.02 1.209-1.35A9.994 9.994 0 0 1 5.012 14H3a1 1 0 1 1 0-2h2.108a9.782 9.782 0 0 1 .616-2.277 5.483 5.483 0 0 1-.966-.516c-.651-.434-1.3-1.053-1.652-1.76a1 1 0 0 1 .447-1.341Z"/></g></svg>
